Francia/Otras Categorias/Fc Toulouse.svg

<svg enable-background="new 0 0 660 660" viewBox="0 0 660 660" xmlns="http://www.w3.org/2000/svg"><path d="m576.604 12.5v336.934c0 124.473-104.462 225.351-255.264 277.098-150.802-51.748-255.264-152.625-255.264-277.098v-336.934z" fill="#af348d"/><path d="m66.076 320.214v-13.986h324.15l32.518 13.986zm0-27.973v-13.987h286.734v13.987zm0-27.974v-13.987h286.734v13.988h-286.734zm0-27.974v-13.987h286.734v13.987zm0-27.973v-13.988h286.734v13.988zm0-27.975v-13.986h286.734v13.986zm0-27.975v-13.986h286.734v13.986zm0-27.974v-13.986h286.734v13.986zm0-27.974v-13.987h286.734v13.987zm0-27.973v-13.988h286.734v13.988zm0-27.975v-13.988h316.805l-30.071 13.988z" fill="#fffffc"/><path d="m422.745 12.5c84.744 0 153.859 69.115 153.859 153.859 0 84.742-69.115 153.855-153.859 153.855-84.742 0-153.855-69.114-153.855-153.855-.001-84.744 69.112-153.859 153.855-153.859z" fill="#fff"/><path d="m133.409 395.054-.005-41.414h93.688c6.548 0 11.523 1.826 14.958 5.509 3.433 3.681 5.151 9.079 5.151 16.221 0 6.422-1.694 11.296-5.102 14.643-3.409 3.348-8.351 5.041-14.829 5.041h-19.251v119.972h-43.194v-119.972zm312.579-44.828c27.909 0 52.496 15.502 66.523 38.813l-34.23 22.094c-6.864-11.552-18.781-19.221-32.296-19.221-11.197 0-20.575 5.664-26.971 14.113-6.031 7.974-9.077 17.734-9.135 27.509-.06 10.409 3.259 20.835 9.954 29.151 6.342 7.878 15.379 13.149 26.152 13.149 13.88 0 25.002-8.066 32.354-19.421 6.456-9.974 17.726-14.76 28.046-7.698 5.988 4.097 8.528 11.261 8.501 18.452-.057 15.258-15.527 29.687-27.136 37.536-12.851 8.687-29.125 12.817-41.762 12.817-21.378 0-40.816-9.103-55.047-23.841-14.68-15.206-23.82-36.411-23.82-59.806 0-23.036 8.857-43.947 23.148-59.101 14.283-15.153 34.001-24.546 55.719-24.546zm-141.235 105.496v36.43c0 7.493-1.98 13.258-5.901 17.3-3.906 4.032-8.158 5.574-15.549 5.574-7.339 0-11.629-1.644-15.671-5.88-4.055-4.247-6.06-10.213-6.055-17.853l.079-137.654h96.66l10.063 39.988-63.627.161v23.951l51.507.076-9.366 37.926z" fill="#fff"/><path d="m326.303 215.561c0-4.234-3.498-7.687-7.783-7.687s-7.783 3.453-7.783 7.687c0 4.233 3.498 7.685 7.783 7.685s7.783-3.453 7.783-7.685zm145.649 47.238c-4.234 0-7.686 3.498-7.686 7.783s3.452 7.783 7.686 7.783 7.686-3.498 7.686-7.783-3.452-7.783-7.686-7.783zm-98.407 0c4.234 0 7.688 3.498 7.688 7.783s-3.453 7.783-7.688 7.783c-4.233 0-7.685-3.498-7.685-7.783s3.453-7.783 7.685-7.783zm60.684-84.953c3.498 24.442 13.103 68.698 28.453 86.968-20.217-1.952-35.065 10.243-39.934 25.755-4.866-15.512-19.714-27.706-39.931-25.755 15.35-18.27 24.939-62.526 28.437-86.968-24.443 3.497-68.695 13.095-86.966 28.443 1.953-20.218-10.243-35.066-25.755-39.93 15.512-4.869 27.708-19.716 25.755-39.933 18.272 15.349 62.551 24.919 86.993 28.416-3.498-24.443-13.114-68.675-28.464-86.945 20.217 1.952 35.065-10.242 39.931-25.755 4.868 15.513 19.716 27.706 39.934 25.755-15.35 18.27-24.975 62.503-28.472 86.945 24.446-3.496 68.725-13.067 86.996-28.416-1.952 20.217 10.243 35.064 25.755 39.933-15.512 4.864-27.706 19.712-25.755 39.93-18.271-15.348-62.533-24.946-86.977-28.443zm-11.482 115.559c-4.234 0-7.684 3.498-7.684 7.785 0 4.285 3.45 7.783 7.684 7.783 4.233 0 7.684-3.498 7.684-7.783.001-4.287-3.451-7.785-7.684-7.785zm49.205-223.494c-4.234 0-7.686-3.496-7.686-7.783s3.452-7.783 7.686-7.783 7.686 3.496 7.686 7.783-3.452 7.783-7.686 7.783zm-98.407 0c4.234 0 7.688-3.496 7.688-7.783s-3.453-7.783-7.688-7.783c-4.233 0-7.685 3.496-7.685 7.783s3.453 7.783 7.685 7.783zm49.202-30.606c-4.234 0-7.684-3.498-7.684-7.785 0-4.285 3.45-7.783 7.684-7.783 4.233 0 7.684 3.498 7.684 7.783.001 4.287-3.451 7.785-7.684 7.785zm-96.444 77.851c0 4.233-3.498 7.686-7.783 7.686s-7.783-3.453-7.783-7.686c0-4.234 3.498-7.686 7.783-7.686s7.783 3.451 7.783 7.686zm-30.607 49.198c0-4.232-3.498-7.683-7.783-7.683s-7.785 3.45-7.785 7.683 3.499 7.687 7.785 7.687 7.783-3.454 7.783-7.687zm223.494 49.207c0-4.234 3.499-7.687 7.784-7.687s7.783 3.453 7.783 7.687c0 4.233-3.498 7.685-7.783 7.685s-7.784-3.453-7.784-7.685zm0-98.405c0 4.233 3.499 7.686 7.784 7.686s7.783-3.453 7.783-7.686c0-4.234-3.498-7.686-7.783-7.686s-7.784 3.451-7.784 7.686zm30.61 49.198c0-4.232 3.497-7.683 7.783-7.683 4.285 0 7.783 3.45 7.783 7.683s-3.497 7.687-7.783 7.687-7.783-3.454-7.783-7.687z" fill="#ee3124" stroke="#f3c108" stroke-width=".4884"/></svg>

<?xml version="1.0" encoding="iso-8859-1"?>
<!-- Generator: Adobe Illustrator 24.0.1, SVG Export Plug-In . SVG Version: 6.00 Build 0)  -->
<svg version="1.1" id="Layer_1" xmlns="http://www.w3.org/2000/svg" xmlns:xlink="http://www.w3.org/1999/xlink" x="0px" y="0px"
	 viewBox="0 0 660 660" style="enable-background:new 0 0 660 660;" xml:space="preserve">
<path style="fill:#AF348D;" d="M576.604,12.5v336.934l0,0c0,124.473-104.462,225.351-255.264,277.098
	C170.538,574.784,66.076,473.907,66.076,349.434l0,0V12.5H576.604L576.604,12.5z"/>
<path style="fill:#FFFFFC;" d="M66.076,320.214v-13.986h324.15l32.518,13.986H66.076L66.076,320.214z M66.076,292.241v-13.987
	H352.81v13.987H66.076L66.076,292.241z M66.076,264.267V250.28H352.81v13.988H66.076L66.076,264.267z M66.076,236.293v-13.987
	H352.81v13.987H66.076L66.076,236.293z M66.076,208.32v-13.988H352.81v13.988H66.076L66.076,208.32z M66.076,180.345v-13.986H352.81
	v13.986H66.076L66.076,180.345z M66.076,152.37v-13.986H352.81v13.986H66.076L66.076,152.37z M66.076,124.396V110.41H352.81v13.986
	H66.076L66.076,124.396z M66.076,96.422V82.435H352.81v13.987H66.076L66.076,96.422z M66.076,68.449V54.461H352.81v13.988H66.076
	L66.076,68.449z M66.076,40.474V26.486h316.805L352.81,40.474H66.076L66.076,40.474z"/>
<path style="fill:#FFFFFF;" d="M422.745,12.5c84.744,0,153.859,69.115,153.859,153.859c0,84.742-69.115,153.855-153.859,153.855
	c-84.742,0-153.855-69.114-153.855-153.855C268.889,81.615,338.002,12.5,422.745,12.5L422.745,12.5z"/>
<path style="fill:#FFFFFF;" d="M133.409,395.054l-0.005-41.414h93.688l0,0c6.548,0,11.523,1.826,14.958,5.509
	c3.433,3.681,5.151,9.079,5.151,16.221c0,6.422-1.694,11.296-5.102,14.643c-3.409,3.348-8.351,5.041-14.829,5.041l0,0h-19.251
	v119.972h-43.194V395.054H133.409L133.409,395.054z M445.988,350.226c27.909,0,52.496,15.502,66.523,38.813l0,0l-34.23,22.094l0,0
	c-6.864-11.552-18.781-19.221-32.296-19.221c-11.197,0-20.575,5.664-26.971,14.113c-6.031,7.974-9.077,17.734-9.135,27.509
	c-0.06,10.409,3.259,20.835,9.954,29.151c6.342,7.878,15.379,13.149,26.152,13.149c13.88,0,25.002-8.066,32.354-19.421
	c6.456-9.974,17.726-14.76,28.046-7.698c5.988,4.097,8.528,11.261,8.501,18.452c-0.057,15.258-15.527,29.687-27.136,37.536
	c-12.851,8.687-29.125,12.817-41.762,12.817c-21.378,0-40.816-9.103-55.047-23.841c-14.68-15.206-23.82-36.411-23.82-59.806
	c0-23.036,8.857-43.947,23.148-59.101C404.552,359.619,424.27,350.226,445.988,350.226L445.988,350.226z M304.753,455.722v36.43l0,0
	c0,7.493-1.98,13.258-5.901,17.3c-3.906,4.032-8.158,5.574-15.549,5.574c-7.339,0-11.629-1.644-15.671-5.88
	c-4.055-4.247-6.06-10.213-6.055-17.853l0,0l0.079-137.654h96.66l10.063,39.988l-63.627,0.161v23.951l51.507,0.076l-9.366,37.926
	L304.753,455.722L304.753,455.722z"/>
<path style="fill:#EE3124;stroke:#F3C108;stroke-width:0.4884;" d="M326.303,215.561c0-4.234-3.498-7.687-7.783-7.687
	c-4.285,0-7.783,3.453-7.783,7.687c0,4.233,3.498,7.685,7.783,7.685C322.805,223.246,326.303,219.793,326.303,215.561
	L326.303,215.561z M471.952,262.799c-4.234,0-7.686,3.498-7.686,7.783c0,4.285,3.452,7.783,7.686,7.783
	c4.234,0,7.686-3.498,7.686-7.783C479.638,266.297,476.186,262.799,471.952,262.799L471.952,262.799z M373.545,262.799
	c4.234,0,7.688,3.498,7.688,7.783c0,4.285-3.453,7.783-7.688,7.783c-4.233,0-7.685-3.498-7.685-7.783
	C365.86,266.297,369.313,262.799,373.545,262.799L373.545,262.799z M434.229,177.846c3.498,24.442,13.103,68.698,28.453,86.968
	c-20.217-1.952-35.065,10.243-39.934,25.755c-4.866-15.512-19.714-27.706-39.931-25.755c15.35-18.27,24.939-62.526,28.437-86.968
	c-24.443,3.497-68.695,13.095-86.966,28.443c1.953-20.218-10.243-35.066-25.755-39.93c15.512-4.869,27.708-19.716,25.755-39.933
	c18.272,15.349,62.551,24.919,86.993,28.416c-3.498-24.443-13.114-68.675-28.464-86.945c20.217,1.952,35.065-10.242,39.931-25.755
	c4.868,15.513,19.716,27.706,39.934,25.755c-15.35,18.27-24.975,62.503-28.472,86.945c24.446-3.496,68.725-13.067,86.996-28.416
	c-1.952,20.217,10.243,35.064,25.755,39.933c-15.512,4.864-27.706,19.712-25.755,39.93
	C502.935,190.941,458.673,181.343,434.229,177.846L434.229,177.846z M422.747,293.405c-4.234,0-7.684,3.498-7.684,7.785
	c0,4.285,3.45,7.783,7.684,7.783c4.233,0,7.684-3.498,7.684-7.783C430.432,296.903,426.98,293.405,422.747,293.405L422.747,293.405z
	 M471.952,69.911c-4.234,0-7.686-3.496-7.686-7.783c0-4.287,3.452-7.783,7.686-7.783c4.234,0,7.686,3.496,7.686,7.783
	C479.638,66.415,476.186,69.911,471.952,69.911L471.952,69.911z M373.545,69.911c4.234,0,7.688-3.496,7.688-7.783
	c0-4.287-3.453-7.783-7.688-7.783c-4.233,0-7.685,3.496-7.685,7.783C365.86,66.415,369.313,69.911,373.545,69.911L373.545,69.911z
	 M422.747,39.305c-4.234,0-7.684-3.498-7.684-7.785c0-4.285,3.45-7.783,7.684-7.783c4.233,0,7.684,3.498,7.684,7.783
	C430.432,35.807,426.98,39.305,422.747,39.305L422.747,39.305z M326.303,117.156c0,4.233-3.498,7.686-7.783,7.686
	c-4.285,0-7.783-3.453-7.783-7.686c0-4.234,3.498-7.686,7.783-7.686C322.805,109.47,326.303,112.921,326.303,117.156
	L326.303,117.156z M295.696,166.354c0-4.232-3.498-7.683-7.783-7.683c-4.285,0-7.785,3.45-7.785,7.683
	c0,4.233,3.499,7.687,7.785,7.687C292.199,174.041,295.696,170.587,295.696,166.354L295.696,166.354z M519.19,215.561
	c0-4.234,3.499-7.687,7.784-7.687c4.285,0,7.783,3.453,7.783,7.687c0,4.233-3.498,7.685-7.783,7.685
	C522.689,223.246,519.19,219.793,519.19,215.561L519.19,215.561z M519.19,117.156c0,4.233,3.499,7.686,7.784,7.686
	c4.285,0,7.783-3.453,7.783-7.686c0-4.234-3.498-7.686-7.783-7.686C522.689,109.47,519.19,112.921,519.19,117.156L519.19,117.156z
	 M549.8,166.354c0-4.232,3.497-7.683,7.783-7.683c4.285,0,7.783,3.45,7.783,7.683c0,4.233-3.497,7.687-7.783,7.687
	C553.297,174.041,549.8,170.587,549.8,166.354L549.8,166.354z"/>
</svg>
